dist/img/svg/shirt3_icon.svg

<svg version="1.2" baseProfile="tiny-ps" xmlns="http://www.w3.org/2000/svg" width="940" height="941"><style/><g id="Layer 1"><path id="&lt;Compound Path&gt;" fill-rule="evenodd" d="M833.61 78.95a165.038 165.038 0 0142.44 98.06L935 859.65c.2 2.09-.06 4.18-.74 6.15-.67 2-1.72 3.79-3.15 5.34-1.4 1.54-3.12 2.77-5.04 3.61-1.91.82-3.98 1.25-6.07 1.25H789.65l2.11 45c0 3.98-1.58 7.79-4.42 10.61-2.79 2.81-6.6 4.39-10.58 4.39H163.11a14.992 14.992 0 01-15-15l2.1-45H20c-2.09 0-4.15-.43-6.06-1.25-1.92-.84-3.64-2.07-5.05-3.61-1.41-1.55-2.49-3.34-3.16-5.34a14.89 14.89 0 01-.73-6.15l58.35-682.19a164.986 164.986 0 0142.55-98.5 164.926 164.926 0 0194.1-51.5L323.45 6c2.81-.54 5.72-.25 8.38.81 2.66 1.06 4.96 2.86 6.62 5.19 35.4 48.15 81.9 75.01 131.1 75.01 49.2 0 95.7-26.26 131.11-75.01 1.66-2.33 3.95-4.13 6.61-5.19a15.03 15.03 0 018.39-.81L740 27.46c36.05 6.29 68.98 24.42 93.61 51.49zM788.3 846h115.35l-57.3-666.45a134.906 134.906 0 00-34.83-80.45A134.991 134.991 0 00734.61 57L620 37.35c-40.8 52.05-93.3 80.55-150 80.55S360.5 89.4 320 37.35L205.7 57a134.946 134.946 0 00-76.87 42.04 134.886 134.886 0 00-34.87 80.36L36.35 846H151.7l27.15-568.65c0-3.98 1.58-7.8 4.39-10.61a15.01 15.01 0 0110.61-4.39c3.85.19 7.48 1.85 10.12 4.66a14.96 14.96 0 014.14 10.34L180.95 861l-2.1 45h582.3l-2.09-45-26.56-585c0-3.85 1.48-7.56 4.14-10.35a15 15 0 0110.12-4.65c3.98 0 7.79 1.58 10.58 4.39 2.84 2.82 4.42 6.64 4.42 10.61l26.54 570z" fill="#000" stroke="#000" stroke-width="10"/></g></svg>

<svg version="1.2" baseProfile="tiny-ps" xmlns="http://www.w3.org/2000/svg" viewBox="0 0 940 941" width="940" height="941">
	<title>Layer 1</title>
	<style>
		tspan { white-space:pre }
		.shp0 { fill: #000000;stroke: #000000;stroke-width: 10 } 
	</style>
	<g id="Layer 1">
		<path id="&lt;Compound Path&gt;" fill-rule="evenodd" class="shp0" d="M833.61 78.95C858.24 106.02 873.16 140.51 876.05 177.01L935 859.65C935.2 861.74 934.94 863.83 934.26 865.8C933.59 867.8 932.54 869.59 931.11 871.14C929.71 872.68 927.99 873.91 926.07 874.75C924.16 875.57 922.09 876 920 876L789.65 876L791.76 921C791.76 924.98 790.18 928.79 787.34 931.61C784.55 934.42 780.74 936 776.76 936L163.11 936C159.12 936 155.31 934.42 152.5 931.61C149.68 928.79 148.11 924.98 148.11 921L150.21 876L20 876C17.91 876 15.85 875.57 13.94 874.75C12.02 873.91 10.3 872.68 8.89 871.14C7.48 869.59 6.4 867.8 5.73 865.8C5.06 863.83 4.81 861.74 5 859.65L63.35 177.46C66.16 140.8 81.14 106.14 105.9 78.96C130.65 51.79 163.77 33.66 200 27.46L323.45 6C326.26 5.46 329.17 5.75 331.83 6.81C334.49 7.87 336.79 9.67 338.45 12C373.85 60.15 420.35 87.01 469.55 87.01C518.75 87.01 565.25 60.75 600.66 12C602.32 9.67 604.61 7.87 607.27 6.81C609.92 5.75 612.85 5.46 615.66 6L740 27.46C776.05 33.75 808.98 51.88 833.61 78.95ZM788.3 846L903.65 846L846.35 179.55C844.02 149.6 831.76 121.29 811.52 99.1C791.27 76.9 764.22 62.08 734.61 57L620 37.35C579.2 89.4 526.7 117.9 470 117.9C413.3 117.9 360.5 89.4 320 37.35L205.7 57C176.11 62.07 149.07 76.87 128.83 99.04C108.59 121.2 96.32 149.48 93.96 179.4L36.35 846L151.7 846L178.85 277.35C178.85 273.37 180.43 269.55 183.24 266.74C186.05 263.93 189.87 262.35 193.85 262.35C197.7 262.54 201.33 264.2 203.97 267.01C206.63 269.79 208.11 273.5 208.11 277.35L180.95 861L178.85 906L761.15 906L759.06 861L732.5 276C732.5 272.15 733.98 268.44 736.64 265.65C739.28 262.86 742.91 261.2 746.76 261C750.74 261 754.55 262.58 757.34 265.39C760.18 268.21 761.76 272.03 761.76 276L788.3 846Z" />
	</g>
</svg>
